proprietary/assets/icons/geld-en-financien/financien.svg

<svg height="64" viewBox="0 0 64 64" width="64" xmlns="http://www.w3.org/2000/svg"><path d="m0 0h64v64h-64z" fill="none"/><path d="m10.9518 20.6377 8.5675 2.6749c.0349-4.074-.6754-9.0234-4.3643-12.9534.1133-.1783.3508-.1981.6414-.0541 3.353 1.6613 6.0168 6.2357 6.0555 13.6794.0002.0032.0009.0118.0012.0156h33.8636c-.05-1.0088-.9827-16.0001-12.2167-16.0001-6.1818 0-12.5227 0-27.25 0-5.5 0-7.3144 5.428-8.1595 11.725.1635 3.6872.9657 16.9419 1.2455 20.5057.0444.566.3273 1.0845.7781 1.4296l8.4961 6.1667.8605-21.9738-8.9139-5.0179c.009-.0594.0681-.2621.395-.1976z"/><path d="m53.5465 37.3509 1.8551-11.3509h-33.5395l-.8621 22h10v-.4513c0-6.1279 7.3086-10.7487 17.001-10.7487 1.9623 0 3.8195.1979 5.5455.5509zm-14.6089-4.3165-.138 1.9656h-2l.1426-2.0309c-.7038-.3791-1.1876-1.1138-1.1876-1.9691 0-1.2401 1.0053-2.2454 2.2454-2.2454s2.2455 1.0053 2.2455 2.2454c0 .9042-.5376 1.6786-1.3079 2.0344z"/><path d="m48.0013 40c-7.8522 0-14.0013 3.3673-14.0013 7.6666v3.6548c0 4.3039 6.1491 7.6786 14.0013 7.6786 7.8498 0 13.9987-3.3747 13.9987-7.6786 0-.6324 0-3.0202 0-3.6548 0-4.2993-6.1489-7.6666-13.9987-7.6666zm.0019 13.15c-6.242 0-11.3022-2.3057-11.3022-5.15s5.0602-5.15 11.3022-5.15 11.3022 2.3057 11.3022 5.15-5.0602 5.15-11.3022 5.15z"/><path d="m52.0721 45.7725c.2122.5182.2886.7773.2886 1.2546 0 .6166-.5938 1.1155-2.0345 1.334v-1.7634h-1.5168v1.8928c-.1907.0096-.384.0193-.6129.0193-.2696 0-.52-.0098-.7872-.0193v-1.8928h-1.555v1.7538c-1.4023-.2089-2.1323-.6575-2.1323-1.3748 0-.4078.0763-.6454.248-1.1539h-2.168c-.174.4269-.2313.7269-.2313 1.1226 0 1.4155 1.4406 2.4207 4.2836 2.7805v.6766h1.555v-.5565c.3052.0191.6702.0191 1.0161.0191h.384v.5374h1.5168v-.6166c2.7834-.2999 4.1094-1.2643 4.1094-2.6701 0-.5469-.0571-.7845-.3076-1.3435h-2.0559z"/></svg>

<?xml version="1.0" encoding="utf-8"?>
<!-- Generator: Adobe Illustrator 17.1.0, SVG Export Plug-In . SVG Version: 6.00 Build 0)  -->
<svg version="1.2" baseProfile="tiny" xmlns="http://www.w3.org/2000/svg" xmlns:xlink="http://www.w3.org/1999/xlink" x="0px"
	 y="0px" width="64px" height="64px" viewBox="0 0 64 64" xml:space="preserve">
<g id="_x36_4px_Boxes">
	<rect fill="none" width="64" height="64"/>
</g>
<g id="Icon">
	<g>
		<path d="M10.9518,20.6377l8.5675,2.6749c0.0349-4.074-0.6754-9.0234-4.3643-12.9534c0.1133-0.1783,0.3508-0.1981,0.6414-0.0541
			c3.353,1.6613,6.0168,6.2357,6.0555,13.6794c0.0002,0.0032,0.0009,0.0118,0.0012,0.0156h33.8636C55.6667,22.9913,54.734,8,43.5,8
			c-6.1818,0-12.5227,0-27.25,0c-5.5,0-7.3144,5.428-8.1595,11.725c0.1635,3.6872,0.9657,16.9419,1.2455,20.5057
			c0.0444,0.566,0.3273,1.0845,0.7781,1.4296l8.4961,6.1667l0.8605-21.9738l-8.9139-5.0179
			C10.5658,20.7759,10.6249,20.5732,10.9518,20.6377z"/>
		<path d="M53.5465,37.3509L55.4016,26H21.8621L21,48h10v-0.4513C31,41.4208,38.3086,36.8,48.001,36.8
			C49.9633,36.8,51.8205,36.9979,53.5465,37.3509z M38.9376,33.0344L38.7996,35h-2l0.1426-2.0309
			C36.2384,32.59,35.7546,31.8553,35.7546,31c0-1.2401,1.0053-2.2454,2.2454-2.2454S40.2455,29.7599,40.2455,31
			C40.2455,31.9042,39.7079,32.6786,38.9376,33.0344z"/>
		<path d="M48.0013,40C40.1491,40,34,43.3673,34,47.6666c0,0.6346,0,3.0225,0,3.6548C34,55.6253,40.1491,59,48.0013,59
			C55.8511,59,62,55.6253,62,51.3214c0-0.6324,0-3.0202,0-3.6548C62,43.3673,55.8511,40,48.0013,40z M48.0032,53.15
			c-6.242,0-11.3022-2.3057-11.3022-5.15s5.0602-5.15,11.3022-5.15S59.3054,45.1557,59.3054,48S54.2452,53.15,48.0032,53.15z"/>
		<path d="M52.0721,45.7725c0.2122,0.5182,0.2886,0.7773,0.2886,1.2546c0,0.6166-0.5938,1.1155-2.0345,1.334v-1.7634h-1.5168v1.8928
			c-0.1907,0.0096-0.384,0.0193-0.6129,0.0193c-0.2696,0-0.52-0.0098-0.7872-0.0193v-1.8928h-1.555v1.7538
			c-1.4023-0.2089-2.1323-0.6575-2.1323-1.3748c0-0.4078,0.0763-0.6454,0.248-1.1539h-2.168
			c-0.174,0.4269-0.2313,0.7269-0.2313,1.1226c0,1.4155,1.4406,2.4207,4.2836,2.7805v0.6766h1.555v-0.5565
			c0.3052,0.0191,0.6702,0.0191,1.0161,0.0191h0.384v0.5374h1.5168v-0.6166c2.7834-0.2999,4.1094-1.2643,4.1094-2.6701
			c0-0.5469-0.0571-0.7845-0.3076-1.3435H52.0721z"/>
	</g>
</g>
</svg>
